;FLAVOR:Marlin
;TIME:6070
;Filament used: 3.75636m
;Layer height: 0.2
;MINX:72.735
;MINY:90.45
;MINZ:0.2
;MAXX:226.702
;MAXY:209.55
;MAXZ:25
;Generated with Cura_SteamEngine 4.6.1
M140 S50
M105
M190 S50
M104 S200
M105
M109 S200
M82 ;absolute extrusion mode
M201 X500.00 Y500.00 Z100.00 E5000.00 ;Setup machine max acceleration
M203 X500.00 Y500.00 Z10.00 E50.00 ;Setup machine max feedrate
M204 P500.00 R1000.00 T500.00 ;Setup Print/Retract/Travel acceleration
M205 X8.00 Y8.00 Z0.40 E5.00 ;Setup Jerk
M220 S100 ;Reset Feedrate
M221 S100 ;Reset Flowrate

G28 ;Home

G92 E0 ;Reset Extruder
G1 Z2.0 F3000 ;Move Z Axis up
G1 X10.1 Y20 Z0.28 F5000.0 ;Move to start position
G1 X10.1 Y200.0 Z0.28 F1500.0 E15 ;Draw the first line
G1 X10.4 Y200.0 Z0.28 F5000.0 ;Move to side a little
G1 X10.4 Y20 Z0.28 F1500.0 E30 ;Draw the second line
G92 E0 ;Reset Extruder
G1 Z2.0 F3000 ;Move Z Axis up

G92 E0
G92 E0
G1 F2700 E-5
;LAYER_COUNT:125
;LAYER:0
M107
G0 F6000 X78.263 Y93.21 Z0.2
;TYPE:SKIRT
G1 F2700 E0
G1 F1200 X79.093 Y92.66 E0.03312
G1 X80.279 Y91.978 E0.07862
G1 X80.982 Y91.62 E0.10486
G1 X81.86 Y91.289 E0.13607
G1 X83.068 Y90.915 E0.17813
G1 X83.833 Y90.72 E0.20439
G1 X84.578 Y90.607 E0.22945
G1 X85.688 Y90.493 E0.26656
G1 X86.484 Y90.452 E0.29307
G1 X112.154 Y90.45 E1.14686
G1 X112.551 Y90.47 E1.16008
G1 X113.072 Y90.45 E1.17742
G1 X218.784 Y90.45 E4.69342
G1 X219.573 Y90.49 E4.71969
G1 X220.353 Y90.609 E4.74594
G1 X221.118 Y90.807 E4.77222
G1 X221.858 Y91.081 E4.79846
G1 X222.567 Y91.429 E4.82473
G1 X223.238 Y91.847 E4.85103
G1 X223.862 Y92.33 E4.87727
G1 X224.299 Y92.735 E4.89709
G1 X224.416 Y92.852 E4.90259
G1 X224.946 Y93.438 E4.92887
G1 X225.413 Y94.074 E4.95511
G1 X225.814 Y94.754 E4.98137
G1 X226.144 Y95.472 E5.00765
G1 X226.399 Y96.219 E5.03391
G1 X226.578 Y96.988 E5.06017
G1 X226.678 Y97.772 E5.08645
G1 X226.701 Y98.357 E5.10593
G1 X226.702 Y99.123 E5.1314
G1 X226.663 Y99.912 E5.15768
G1 X226.545 Y100.692 E5.18392
G1 X226.348 Y101.457 E5.21019
G1 X226.075 Y102.198 E5.23646
G1 X225.728 Y102.908 E5.26274
G1 X225.311 Y103.578 E5.28899
G1 X224.829 Y104.204 E5.31527
G1 X224.417 Y104.648 E5.33541
G1 X224.3 Y104.765 E5.34091
G1 X223.714 Y105.295 E5.36719
G1 X223.078 Y105.762 E5.39344
G1 X222.398 Y106.163 E5.41969
G1 X221.68 Y106.493 E5.44598
G1 X220.933 Y106.748 E5.47223
G1 X220.164 Y106.927 E5.49849
G1 X219.38 Y107.027 E5.52478
G1 X218.785 Y107.05 E5.54458
G1 X113.073 Y107.05 E9.06058
G1 X112.511 Y107.022 E9.07929
G1 X112.116 Y107.049 E9.09246
G1 X89.335 Y107.05 E9.85016
G1 X89.335 Y192.949 E12.70717
G1 X95.277 Y192.95 E12.9048
G1 X108.147 Y192.958 E13.33286
G1 X108.805 Y192.95 E13.35475
G1 X112.154 Y192.949 E13.46614
G1 X112.562 Y192.97 E13.47973
G1 X113.073 Y192.95 E13.49673
G1 X218.785 Y192.95 E17.01273
G1 X219.574 Y192.99 E17.03901
G1 X220.354 Y193.109 E17.06525
G1 X221.119 Y193.307 E17.09153
G1 X221.859 Y193.581 E17.11778
G1 X222.568 Y193.929 E17.14405
G1 X223.239 Y194.347 E17.17034
G1 X223.863 Y194.83 E17.19658
G1 X224.3 Y195.235 E17.2164
G1 X224.417 Y195.352 E17.2219
G1 X224.947 Y195.938 E17.24818
G1 X225.414 Y196.574 E17.27443
G1 X225.815 Y197.254 E17.30068
G1 X226.145 Y197.972 E17.32697
G1 X226.4 Y198.719 E17.35322
G1 X226.579 Y199.488 E17.37948
G1 X226.679 Y200.272 E17.40577
G1 X226.702 Y200.867 E17.42557
G1 X226.702 Y201.633 E17.45105
G1 X226.662 Y202.422 E17.47733
G1 X226.543 Y203.202 E17.50357
G1 X226.345 Y203.967 E17.52985
G1 X226.071 Y204.707 E17.5561
G1 X225.723 Y205.416 E17.58237
G1 X225.305 Y206.087 E17.60866
G1 X224.822 Y206.711 E17.6349
G1 X224.417 Y207.148 E17.65472
G1 X224.3 Y207.265 E17.66023
G1 X223.714 Y207.795 E17.6865
G1 X223.078 Y208.262 E17.71275
G1 X222.398 Y208.663 E17.739
G1 X221.68 Y208.993 E17.76529
G1 X220.933 Y209.248 E17.79154
G1 X220.164 Y209.427 E17.8178
G1 X219.38 Y209.527 E17.84409
G1 X218.785 Y209.55 E17.86389
G1 X113.073 Y209.55 E21.37989
G1 X112.663 Y209.529 E21.39354
G1 X112.558 Y209.54 E21.39705
G1 X112.156 Y209.55 E21.41043
G1 X86.567 Y209.55 E22.26152
G1 X85.662 Y209.497 E22.29167
G1 X84.275 Y209.335 E22.33812
G1 X83.496 Y209.204 E22.36439
G1 X82.582 Y208.942 E22.39602
G1 X81.28 Y208.482 E22.44195
G1 X80.549 Y208.182 E22.46823
G1 X79.72 Y207.727 E22.49968
G1 X78.663 Y207.061 E22.54123
G1 X78.017 Y206.607 E22.56749
G1 X77.414 Y206.083 E22.59406
G1 X76.548 Y205.25 E22.63403
G1 X76.007 Y204.675 E22.66029
G1 X75.46 Y203.948 E22.69055
G1 X74.72 Y202.835 E22.735
G1 X74.316 Y202.156 E22.76128
G1 X73.896 Y201.213 E22.79561
G1 X73.385 Y199.826 E22.84478
G1 X73.15 Y199.072 E22.87105
G1 X72.959 Y198.054 E22.9055
G1 X72.792 Y196.656 E22.95232
G1 X72.737 Y195.77 E22.98185
G1 X72.735 Y195.37 E22.99515
G1 X72.735 Y104.304 E26.02402
G1 X72.764 Y103.627 E26.04656
G1 X72.808 Y103.162 E26.06209
G1 X72.944 Y101.992 E26.10127
G1 X73.075 Y101.214 E26.12751
G1 X73.356 Y100.242 E26.16116
G1 X73.849 Y98.878 E26.2094
G1 X74.155 Y98.15 E26.23567
G1 X74.713 Y97.175 E26.27303
G1 X75.492 Y96.017 E26.31945
G1 X75.965 Y95.385 E26.34571
G1 X76.643 Y94.668 E26.37853
G1 X77.66 Y93.719 E26.42479
G1 X78.263 Y93.21 E26.45104
G0 F6000 X78.521 Y93.517
G1 F1200 X79.292 Y93.007 E26.48178
G1 X80.478 Y92.325 E26.52729
G1 X81.164 Y91.977 E26.55287
G1 X81.978 Y91.671 E26.5818
G1 X83.186 Y91.297 E26.62386
G1 X83.932 Y91.108 E26.64945
G1 X84.619 Y91.005 E26.67256
G1 X85.729 Y90.891 E26.70967
G1 X86.484 Y90.852 E26.73481
G1 X112.154 Y90.85 E27.5886
G1 X112.563 Y90.871 E27.60222
G1 X112.647 Y90.862 E27.60503
G1 X113.072 Y90.85 E27.61917
G1 X218.784 Y90.85 E31.13517
G1 X219.552 Y90.89 E31.16075
G1 X220.312 Y91.009 E31.18633
G1 X221.055 Y91.207 E31.21191
G1 X221.774 Y91.481 E31.2375
G1 X222.46 Y91.828 E31.26307
G1 X223.107 Y92.244 E31.28865
G1 X223.707 Y92.725 E31.31423
G1 X224.134 Y93.134 E31.3339
G1 X224.648 Y93.706 E31.35947
G1 X225.101 Y94.328 E31.38507
G1 X225.487 Y94.993 E31.41064
G1 X225.802 Y95.695 E31.43623
G1 X226.042 Y96.426 E31.46182
G1 X226.205 Y97.177 E31.48738
G1 X226.289 Y97.942 E31.51298
G1 X226.301 Y98.357 E31.52679
G1 X226.302 Y99.123 E31.55226
G1 X226.263 Y99.892 E31.57787
G1 X226.145 Y100.651 E31.60342
G1 X225.948 Y101.395 E31.62902
G1 X225.675 Y102.114 E31.6546
G1 X225.329 Y102.801 E31.68018
G1 X224.913 Y103.448 E31.70577
G1 X224.433 Y104.049 E31.73135
G1 X224.135 Y104.366 E31.74582
G1 X224.018 Y104.483 E31.75132
G1 X223.446 Y104.997 E31.7769
G1 X222.824 Y105.45 E31.8025
G1 X222.159 Y105.836 E31.82807
G1 X221.457 Y106.151 E31.85366
G1 X220.726 Y106.391 E31.87925
G1 X219.975 Y106.554 E31.90481
G1 X219.21 Y106.638 E31.93041
G1 X218.785 Y106.65 E31.94455
G1 X113.073 Y106.65 E35.46054
G1 X112.653 Y106.628 E35.47453
G1 X112.116 Y106.649 E35.49241
G1 X88.935 Y106.65 E36.26341
G1 X88.935 Y193.349 E39.14703
G1 X95.277 Y193.35 E39.35797
G1 X108.151 Y193.358 E39.78616
G1 X108.805 Y193.35 E39.80791
G1 X112.154 Y193.349 E39.9193
G1 X112.569 Y193.371 E39.93312
G1 X112.648 Y193.362 E39.93577
G1 X113.073 Y193.35 E39.94991
G1 X218.785 Y193.35 E43.4659
G1 X219.553 Y193.39 E43.49148
G1 X220.313 Y193.509 E43.51707
G1 X221.056 Y193.707 E43.54264
G1 X221.775 Y193.981 E43.56823
G1 X222.461 Y194.328 E43.5938
G1 X223.108 Y194.744 E43.61939
G1 X223.708 Y195.225 E43.64496
G1 X224.135 Y195.634 E43.66463
G1 X224.649 Y196.206 E43.69021
G1 X225.102 Y196.828 E43.7158
G1 X225.488 Y197.493 E43.74137
G1 X225.803 Y198.195 E43.76696
G1 X226.043 Y198.926 E43.79255
G1 X226.206 Y199.677 E43.81811
G1 X226.29 Y200.442 E43.84371
G1 X226.302 Y200.867 E43.85785
G1 X226.302 Y201.633 E43.88333
G1 X226.262 Y202.401 E43.90891
G1 X226.143 Y203.161 E43.93449
G1 X225.945 Y203.904 E43.96007
G1 X225.671 Y204.623 E43.98566
G1 X225.324 Y205.309 E44.01123
G1 X224.908 Y205.956 E44.03681
G1 X224.427 Y206.556 E44.06239
G1 X224.018 Y206.983 E44.08206
G1 X223.446 Y207.497 E44.10763
G1 X222.824 Y207.95 E44.13323
G1 X222.159 Y208.336 E44.1588
G1 X221.457 Y208.651 E44.18439
G1 X220.726 Y208.891 E44.20998
G1 X219.975 Y209.054 E44.23554
G1 X219.21 Y209.138 E44.26114
G1 X218.785 Y209.15 E44.27528
G1 X113.073 Y209.15 E47.79128
G1 X112.591 Y209.125 E47.80733
G1 X112.156 Y209.15 E47.82182
G1 X86.567 Y209.15 E48.67291
G1 X85.709 Y209.1 E48.7015
G1 X84.322 Y208.938 E48.74795
G1 X83.563 Y208.809 E48.77355
G1 X82.715 Y208.565 E48.8029
G1 X81.413 Y208.105 E48.84883
G1 X80.702 Y207.812 E48.87441
G1 X79.933 Y207.389 E48.9036
G1 X78.876 Y206.723 E48.94515
G1 X78.248 Y206.28 E48.97071
G1 X77.691 Y205.795 E48.99528
G1 X76.825 Y204.962 E49.03524
G1 X76.299 Y204.401 E49.06082
G1 X75.793 Y203.726 E49.08888
G1 X75.053 Y202.613 E49.13333
G1 X74.661 Y201.951 E49.15892
G1 X74.271 Y201.074 E49.19084
G1 X73.76 Y199.687 E49.24001
G1 X73.532 Y198.953 E49.26557
G1 X73.356 Y198.007 E49.29757
G1 X73.189 Y196.609 E49.3444
G1 X73.137 Y195.768 E49.37243
G1 X73.135 Y195.368 E49.38573
G1 X73.135 Y104.304 E52.41453
G1 X73.163 Y103.662 E52.43591
G1 X73.205 Y103.209 E52.45104
G1 X73.341 Y102.039 E52.49021
G1 X73.47 Y101.28 E52.51582
G1 X73.733 Y100.378 E52.54707
G1 X74.226 Y99.014 E52.59531
G1 X74.524 Y98.305 E52.62089
G1 X75.045 Y97.399 E52.65565
G1 X75.824 Y96.241 E52.70207
G1 X76.286 Y95.626 E52.72765
G1 X76.915 Y94.961 E52.7581
G1 X77.932 Y94.012 E52.80436
G1 X78.521 Y93.517 E52.82995
G0 F6000 X78.779 Y93.824
G1 F1200 X79.492 Y93.354 E52.85836
G1 X80.678 Y92.672 E52.90386
G1 X81.345 Y92.334 E52.92873
G1 X82.097 Y92.053 E52.95543
G1 X83.305 Y91.679 E52.99749
G1 X84.03 Y91.496 E53.02236
G1 X84.66 Y91.403 E53.04354
G1 X85.77 Y91.289 E53.08065
G1 X86.484 Y91.252 E53.10443
G1 X112.154 Y91.25 E53.95822
G1 X112.68 Y91.278 E53.97574
G1 X113.072 Y91.25 E53.98881
G1 X218.784 Y91.25 E57.50481
G1 X219.531 Y91.29 E57.52969
G1 X220.269 Y91.409 E57.55455
G1 X220.991 Y91.607 E57.57945
G1 X221.687 Y91.88 E57.60432
G1 X222.35 Y92.227 E57.62921
G1 X222.973 Y92.642 E57.6541
G1 X223.734 Y93.3 E57.68756
G1 X223.851 Y93.417 E57.69307
G1 X224.351 Y93.974 E57.71796
G1 X224.788 Y94.58 E57.74281
G1 X225.159 Y95.23 E57.76771
G1 X225.458 Y95.916 E57.7926
G1 X225.682 Y96.63 E57.81748
G1 X225.829 Y97.363 E57.84235
G1 X225.901 Y98.358 E57.87553
G1 X225.902 Y99.124 E57.90101
G1 X225.863 Y99.871 E57.92589
G1 X225.745 Y100.61 E57.95078
G1 X225.548 Y101.331 E57.97564
G1 X225.275 Y102.028 E58.00053
G1 X224.93 Y102.692 E58.02542
G1 X224.516 Y103.314 E58.05027
G1 X223.852 Y104.083 E58.08406
G1 X223.735 Y104.2 E58.08957
G1 X223.178 Y104.7 E58.11446
G1 X222.572 Y105.137 E58.13931
G1 X221.922 Y105.508 E58.16421
G1 X221.236 Y105.807 E58.1891
G1 X220.522 Y106.031 E58.21398
G1 X219.789 Y106.178 E58.23885
G1 X218.785 Y106.25 E58.27233
G1 X113.073 Y106.25 E61.78832
G1 X112.566 Y106.223 E61.80521
G1 X112.116 Y106.249 E61.8202
G1 X88.535 Y106.25 E62.60451
G1 X88.535 Y193.748 E65.5147
G1 X108.156 Y193.758 E66.1673
G1 X108.805 Y193.75 E66.18889
G1 X112.154 Y193.749 E66.30028
G1 X112.688 Y193.778 E66.31806
G1 X113.073 Y193.75 E66.3309
G1 X218.785 Y193.75 E69.8469
G1 X219.532 Y193.79 E69.87178
G1 X220.27 Y193.909 E69.89664
G1 X220.992 Y194.107 E69.92154
G1 X221.688 Y194.38 E69.94641
G1 X222.351 Y194.727 E69.9713
G1 X222.974 Y195.142 E69.9962
G1 X223.735 Y195.8 E70.02966
G1 X223.852 Y195.917 E70.03516
G1 X224.352 Y196.474 E70.06006
G1 X224.789 Y197.08 E70.08491
G1 X225.16 Y197.73 E70.1098
G1 X225.459 Y198.416 E70.13469
G1 X225.683 Y199.13 E70.15958
G1 X225.83 Y199.863 E70.18444
G1 X225.902 Y200.867 E70.21792
G1 X225.902 Y201.633 E70.2434
G1 X225.862 Y202.38 E70.26828
G1 X225.743 Y203.118 E70.29314
G1 X225.545 Y203.84 E70.31804
G1 X225.272 Y204.536 E70.34291
G1 X224.925 Y205.199 E70.3678
G1 X224.51 Y205.822 E70.39269
G1 X223.852 Y206.583 E70.42616
G1 X223.735 Y206.7 E70.43166
G1 X223.178 Y207.2 E70.45655
G1 X222.572 Y207.637 E70.4814
G1 X221.922 Y208.008 E70.5063
G1 X221.236 Y208.307 E70.53119
G1 X220.522 Y208.531 E70.55607
G1 X219.789 Y208.678 E70.58094
G1 X218.785 Y208.75 E70.61442
G1 X113.073 Y208.75 E74.13041
G1 X112.686 Y208.729 E74.1433
G1 X112.156 Y208.75 E74.16095
G1 X86.567 Y208.75 E75.01204
G1 X85.755 Y208.703 E75.03909
G1 X84.368 Y208.541 E75.08554
G1 X83.631 Y208.414 E75.11041
G1 X82.848 Y208.188 E75.13752
G1 X81.546 Y207.728 E75.18345
G1 X80.855 Y207.442 E75.20832
G1 X80.146 Y207.05 E75.23526
G1 X79.089 Y206.384 E75.27682
G1 X78.479 Y205.952 E75.30168
G1 X77.968 Y205.507 E75.32422
G1 X77.102 Y204.674 E75.36418
G1 X76.592 Y204.127 E75.38906
G1 X76.126 Y203.505 E75.41491
G1 X75.386 Y202.392 E75.45936
G1 X75.006 Y201.747 E75.48426
G1 X74.647 Y200.936 E75.51376
G1 X74.136 Y199.549 E75.56292
G1 X73.915 Y198.834 E75.58781
G1 X73.753 Y197.959 E75.61741
G1 X73.586 Y196.561 E75.66424
G1 X73.537 Y195.766 E75.69073
G1 X73.535 Y195.366 E75.70403
G1 X73.535 Y104.304 E78.73277
G1 X73.561 Y103.696 E78.75301
G1 X73.603 Y103.255 E78.76774
G1 X73.739 Y102.085 E78.80692
G1 X73.865 Y101.347 E78.83182
G1 X74.109 Y100.514 E78.86069
G1 X74.602 Y99.15 E78.90893
G1 X74.893 Y98.461 E78.9338
G1 X75.377 Y97.622 E78.96602
G1 X76.156 Y96.464 E79.01244
G1 X76.606 Y95.866 E79.03733
G1 X77.188 Y95.253 E79.06545
G1 X78.205 Y94.304 E79.11171
G1 X78.779 Y93.824 E79.1366
G0 F6000 X79.036 Y94.131
G1 F1200 X79.691 Y93.701 E79.16266
G1 X80.877 Y93.019 E79.20816
G1 X81.526 Y92.692 E79.23233
G1 X82.215 Y92.435 E79.25679
G1 X83.423 Y92.061 E79.29885
G1 X84.128 Y91.885 E79.32302
G1 X84.701 Y91.801 E79.34228
G1 X85.811 Y91.687 E79.37939
G1 X86.484 Y91.652 E79.40181
G1 X112.154 Y91.65 E80.25559
G1 X112.641 Y91.677 E80.27182
G1 X113.072 Y91.65 E80.28618
G1 X218.784 Y91.65 E83.80218
G1 X219.509 Y91.69 E83.82633
G1 X220.226 Y91.809 E83.8505
G1 X220.925 Y92.007 E83.87466
G1 X221.598 Y92.28 E83.89882
G1 X222.237 Y92.625 E83.92297
G1 X222.834 Y93.039 E83.94714
G1 X223.451 Y93.583 E83.97449
G1 X223.568 Y93.7 E83.98
G1 X224.052 Y94.241 E84.00414
G1 X224.475 Y94.832 E84.02831
G1 X224.829 Y95.466 E84.05247
G1 X225.112 Y96.135 E84.07663
G1 X225.32 Y96.831 E84.10079
G1 X225.45 Y97.546 E84.12496
G1 X225.501 Y98.358 E84.15202
G1 X225.502 Y99.124 E84.1775
G1 X225.463 Y99.85 E84.20168
G1 X225.344 Y100.566 E84.22582
G1 X225.148 Y101.266 E84.25
G1 X224.876 Y101.939 E84.27414
G1 X224.531 Y102.578 E84.29829
G1 X224.119 Y103.176 E84.32244
G1 X223.569 Y103.8 E84.35011
G1 X223.452 Y103.917 E84.35561
G1 X222.911 Y104.401 E84.37976
G1 X222.32 Y104.824 E84.40393
G1 X221.686 Y105.178 E84.42808
G1 X221.017 Y105.461 E84.45224
G1 X220.321 Y105.669 E84.4764
G1 X219.606 Y105.799 E84.50057
G1 X218.785 Y105.85 E84.52793
G1 X113.073 Y105.85 E88.04393
G1 X112.505 Y105.819 E88.06285
G1 X112.116 Y105.849 E88.07582
G1 X88.135 Y105.85 E88.87344
G1 X88.135 Y194.148 E91.81024
G1 X108.161 Y194.158 E92.47631
G1 X108.805 Y194.15 E92.49773
G1 X112.154 Y194.149 E92.60912
G1 X112.649 Y194.176 E92.6256
G1 X113.073 Y194.15 E92.63973
G1 X218.785 Y194.15 E96.15573
G1 X219.51 Y194.19 E96.17988
G1 X220.227 Y194.309 E96.20405
G1 X220.926 Y194.507 E96.22822
G1 X221.599 Y194.78 E96.25237
G1 X222.238 Y195.125 E96.27652
G1 X222.835 Y195.539 E96.30069
G1 X223.452 Y196.083 E96.32805
G1 X223.569 Y196.2 E96.33355
G1 X224.053 Y196.741 E96.35769
G1 X224.476 Y197.332 E96.38187
G1 X224.83 Y197.966 E96.40602
G1 X225.113 Y198.635 E96.43018
G1 X225.321 Y199.331 E96.45434
G1 X225.451 Y200.046 E96.47851
G1 X225.502 Y200.867 E96.50587
G1 X225.502 Y201.633 E96.53135
G1 X225.462 Y202.358 E96.5555
G1 X225.343 Y203.075 E96.57967
G1 X225.145 Y203.774 E96.60383
G1 X224.872 Y204.447 E96.62799
G1 X224.527 Y205.086 E96.65214
G1 X224.113 Y205.683 E96.67631
G1 X223.569 Y206.3 E96.70366
G1 X223.452 Y206.417 E96.70917
G1 X222.911 Y206.901 E96.73331
G1 X222.32 Y207.324 E96.75748
G1 X221.686 Y207.678 E96.78164
G1 X221.017 Y207.961 E96.8058
G1 X220.321 Y208.169 E96.82996
G1 X219.606 Y208.299 E96.85413
G1 X218.785 Y208.35 E96.88149
G1 X113.073 Y208.35 E100.39748
G1 X112.561 Y208.322 E100.41454
G1 X112.156 Y208.35 E100.42804
G1 X86.567 Y208.35 E101.27913
G1 X85.801 Y208.305 E101.30465
G1 X84.414 Y208.143 E101.3511
G1 X83.699 Y208.02 E101.37523
G1 X82.981 Y207.811 E101.4001
G1 X81.679 Y207.351 E101.44603
G1 X81.009 Y207.072 E101.47017
G1 X80.36 Y206.712 E101.49485
G1 X79.303 Y206.046 E101.53641
G1 X78.71 Y205.626 E101.56057
G1 X78.246 Y205.219 E101.5811
G1 X77.38 Y204.386 E101.62107
G1 X76.885 Y203.854 E101.64524
G1 X76.459 Y203.283 E101.66893
