;FLAVOR:Marlin
;TIME:4033
;Filament used: 2.48794m
;Layer height: 0.2
;MINX:80.735
;MINY:87.25
;MINZ:0.2
;MAXX:229.901
;MAXY:212.75
;MAXZ:25
;Generated with Cura_SteamEngine master
M140 S50
M105
M190 S50
M104 S200
M105
M109 S200
M82 ;absolute extrusion mode
M201 X500.00 Y500.00 Z100.00 E5000.00 ;Setup machine max acceleration
M203 X500.00 Y500.00 Z10.00 E50.00 ;Setup machine max feedrate
M204 P500.00 R1000.00 T500.00 ;Setup Print/Retract/Travel acceleration
M205 X8.00 Y8.00 Z0.40 E5.00 ;Setup Jerk
M220 S100 ;Reset Feedrate
M221 S100 ;Reset Flowrate

G28 ;Home

G92 E0 ;Reset Extruder
G1 Z2.0 F3000 ;Move Z Axis up
G1 X10.1 Y20 Z0.28 F5000.0 ;Move to start position
G1 X10.1 Y200.0 Z0.28 F1500.0 E15 ;Draw the first line
G1 X10.4 Y200.0 Z0.28 F5000.0 ;Move to side a little
G1 X10.4 Y20 Z0.28 F1500.0 E30 ;Draw the second line
G92 E0 ;Reset Extruder
G1 Z2.0 F3000 ;Move Z Axis up

G92 E0
G92 E0
G1 F2700 E-5
;LAYER_COUNT:125
;LAYER:0
M107
G0 F6000 X219.038 Y88.061 Z0.2
;TYPE:SKIRT
G1 F2700 E0
G1 F1200 X219.94 Y88.114 E0.03005
G1 X220.833 Y88.246 E0.06008
G1 X221.711 Y88.457 E0.09011
G1 X222.567 Y88.745 E0.12015
G1 X223.394 Y89.107 E0.15018
G1 X224.186 Y89.542 E0.18023
G1 X224.937 Y90.044 E0.21027
G1 X225.64 Y90.611 E0.24031
G1 X226.29 Y91.238 E0.27035
G1 X226.882 Y91.92 E0.30039
G1 X227.412 Y92.651 E0.33042
G1 X227.874 Y93.427 E0.36046
G1 X228.267 Y94.24 E0.39049
G1 X228.585 Y95.085 E0.42052
G1 X228.828 Y95.955 E0.45056
G1 X228.993 Y96.843 E0.4806
G1 X229.088 Y97.967 E0.51812
G1 X229.097 Y98.28 E0.52854
G1 X229.1 Y98.697 E0.54241
G1 X229.092 Y99.355 E0.56429
G1 X229.041 Y100.257 E0.59434
G1 X228.911 Y101.15 E0.62436
G1 X228.702 Y102.029 E0.65441
G1 X228.416 Y102.886 E0.68446
G1 X228.055 Y103.714 E0.7145
G1 X227.776 Y104.244 E0.73442
G1 X227.272 Y105.137 E0.76853
G1 X226.013 Y107.397 E0.85457
G1 X224.819 Y109.691 E0.94059
G1 X223.708 Y111.982 E1.02527
G1 X222.674 Y114.276 E1.10896
G1 X221.681 Y116.655 E1.19471
G1 X220.776 Y119.016 E1.2788
G1 X219.949 Y121.366 E1.36166
G1 X219.161 Y123.826 E1.44758
G1 X218.455 Y126.268 E1.53213
G1 X217.829 Y128.68 E1.61501
G1 X217.244 Y131.228 E1.70196
G1 X216.757 Y133.68 E1.78511
G1 X216.331 Y136.177 E1.86936
G1 X215.977 Y138.689 E1.95373
G1 X215.689 Y141.243 E2.03922
G1 X215.479 Y143.748 E2.12283
G1 X215.338 Y146.286 E2.20737
G1 X215.269 Y148.819 E2.29165
G1 X215.272 Y151.359 E2.37613
G1 X215.346 Y153.919 E2.46131
G1 X215.492 Y156.448 E2.54557
G1 X215.707 Y158.946 E2.62896
G1 X215.999 Y161.492 E2.71419
G1 X216.362 Y164.02 E2.79914
G1 X216.794 Y166.528 E2.88378
G1 X217.293 Y168.997 E2.96756
G1 X217.859 Y171.449 E3.05126
G1 X218.508 Y173.931 E3.13659
G1 X219.219 Y176.369 E3.22105
G1 X219.999 Y178.788 E3.30559
G1 X220.846 Y181.18 E3.38999
G1 X221.769 Y183.567 E3.47511
G1 X222.747 Y185.896 E3.55912
G1 X223.786 Y188.193 E3.64297
G1 X224.909 Y190.495 E3.72816
G1 X226.072 Y192.719 E3.81164
G1 X227.117 Y194.558 E3.88199
G1 X227.794 Y195.773 E3.92825
G1 X228.198 Y196.581 E3.9583
G1 X228.53 Y197.421 E3.98834
G1 X228.785 Y198.287 E4.01836
G1 X228.963 Y199.173 E4.04842
G1 X229.069 Y200.177 E4.082
G1 X229.087 Y200.504 E4.09289
G1 X229.101 Y201.203 E4.11614
G1 X229.092 Y201.867 E4.13823
G1 X229.04 Y202.769 E4.16828
G1 X228.908 Y203.662 E4.19831
G1 X228.698 Y204.541 E4.22836
G1 X228.411 Y205.397 E4.25839
G1 X228.049 Y206.224 E4.28842
G1 X227.615 Y207.017 E4.31849
G1 X227.114 Y207.767 E4.34848
G1 X226.547 Y208.471 E4.37855
G1 X225.921 Y209.121 E4.40856
G1 X225.239 Y209.714 E4.43862
G1 X224.508 Y210.244 E4.46865
G1 X223.733 Y210.707 E4.49868
G1 X222.92 Y211.1 E4.52872
G1 X222.075 Y211.42 E4.55877
G1 X221.206 Y211.663 E4.58878
G1 X220.318 Y211.829 E4.61883
G1 X219.097 Y211.927 E4.65957
G1 X217.842 Y211.95 E4.70132
G1 X113.663 Y211.95 E8.16632
G1 X113.517 Y211.949 E8.17118
G1 X112.819 Y211.939 E8.1944
G1 X111.917 Y211.886 E8.22445
G1 X111.024 Y211.754 E8.25447
G1 X110.146 Y211.543 E8.28451
G1 X109.29 Y211.255 E8.31455
G1 X108.463 Y210.893 E8.34457
G1 X107.671 Y210.458 E8.37463
G1 X106.92 Y209.956 E8.40467
G1 X106.217 Y209.389 E8.43471
G1 X105.567 Y208.762 E8.46475
G1 X104.975 Y208.08 E8.49479
G1 X104.445 Y207.349 E8.52482
G1 X103.983 Y206.573 E8.55485
G1 X103.59 Y205.76 E8.58489
G1 X103.272 Y204.915 E8.61492
G1 X103.029 Y204.045 E8.64496
G1 X102.864 Y203.157 E8.675
G1 X102.769 Y202.038 E8.71235
G1 X102.76 Y201.73 E8.7226
G1 X102.757 Y201.281 E8.73754
G1 X102.767 Y200.607 E8.75996
G1 X102.82 Y199.705 E8.79001
G1 X102.953 Y198.812 E8.82004
G1 X103.165 Y197.934 E8.85008
G1 X103.453 Y197.078 E8.88012
G1 X103.816 Y196.251 E8.91016
G1 X104.116 Y195.687 E8.9314
G1 X104.543 Y194.942 E8.95997
G1 X105.826 Y192.644 E9.0475
G1 X107.016 Y190.362 E9.1331
G1 X108.097 Y188.137 E9.21538
G1 X109.153 Y185.796 E9.30079
G1 X110.136 Y183.447 E9.38549
G1 X111.051 Y181.075 E9.47005
G1 X111.895 Y178.676 E9.55463
G1 X112.666 Y176.278 E9.63841
G1 X113.377 Y173.832 E9.72313
G1 X114.02 Y171.359 E9.80812
G1 X114.585 Y168.909 E9.89175
G1 X115.095 Y166.368 E9.97795
G1 X115.513 Y163.915 E10.06071
G1 X115.872 Y161.396 E10.14534
G1 X116.163 Y158.828 E10.2313
G1 X116.374 Y156.348 E10.31408
G1 X116.517 Y153.802 E10.39889
G1 X116.589 Y151.259 E10.48351
G1 X116.589 Y148.725 E10.56779
G1 X116.517 Y146.192 E10.65207
G1 X116.372 Y143.628 E10.73749
G1 X116.158 Y141.113 E10.82144
G1 X115.874 Y138.624 E10.90476
G1 X115.509 Y136.054 E10.9911
G1 X115.088 Y133.599 E11.07394
G1 X114.587 Y131.101 E11.15868
G1 X114.005 Y128.576 E11.24486
G1 X113.376 Y126.16 E11.3279
G1 X112.669 Y123.725 E11.41223
G1 X111.889 Y121.3 E11.49696
G1 X111.028 Y118.863 E11.58292
G1 X110.148 Y116.581 E11.66427
G1 X109.135 Y114.155 E11.75171
G1 X108.104 Y111.875 E11.83494
G1 X106.992 Y109.589 E11.91949
G1 X105.82 Y107.342 E12.00378
G1 X104.557 Y105.08 E12.08995
G1 X104.145 Y104.37 E12.11725
G1 X103.727 Y103.569 E12.1473
G1 X103.381 Y102.735 E12.17733
G1 X103.11 Y101.873 E12.20738
G1 X102.917 Y100.991 E12.23741
G1 X102.802 Y100.095 E12.26746
G1 X102.772 Y99.574 E12.28482
G1 X102.761 Y99.228 E12.29633
G1 X102.757 Y98.777 E12.31133
G1 X102.765 Y98.133 E12.33275
G1 X102.816 Y97.232 E12.36277
G1 X102.947 Y96.338 E12.39282
G1 X103.156 Y95.46 E12.42284
G1 X103.442 Y94.603 E12.45289
G1 X103.803 Y93.775 E12.48293
G1 X104.236 Y92.982 E12.51298
G1 X104.737 Y92.231 E12.54301
G1 X105.302 Y91.527 E12.57303
G1 X105.928 Y90.876 E12.60307
G1 X106.608 Y90.282 E12.6331
G1 X107.339 Y89.751 E12.66315
G1 X108.114 Y89.287 E12.69319
G1 X108.926 Y88.893 E12.72321
G1 X109.771 Y88.573 E12.75327
G1 X110.64 Y88.328 E12.7833
G1 X111.528 Y88.162 E12.81334
G1 X112.657 Y88.065 E12.85103
G1 X113.263 Y88.051 E12.87119
G1 X218.194 Y88.05 E16.36121
G1 X218.34 Y88.051 E16.36607
G1 X219.038 Y88.061 E16.38929
G0 F6000 X219.044 Y87.661
G1 F1200 X219.963 Y87.714 E16.4199
G1 X220.874 Y87.847 E16.45052
G1 X221.77 Y88.058 E16.48114
G1 X222.644 Y88.346 E16.51175
G1 X223.491 Y88.709 E16.5424
G1 X224.302 Y89.144 E16.57301
G1 X225.072 Y89.648 E16.60361
G1 X225.796 Y90.217 E16.63424
G1 X226.468 Y90.847 E16.66488
G1 X227.083 Y91.532 E16.6955
G1 X227.636 Y92.268 E16.72612
G1 X228.123 Y93.049 E16.75673
G1 X228.54 Y93.87 E16.78736
G1 X228.885 Y94.724 E16.81799
G1 X229.154 Y95.604 E16.8486
G1 X229.346 Y96.505 E16.87924
G1 X229.459 Y97.418 E16.90983
G1 X229.488 Y97.955 E16.92772
G1 X229.497 Y98.268 E16.93814
G1 X229.5 Y98.702 E16.95257
G1 X229.492 Y99.36 E16.97446
G1 X229.441 Y100.279 E17.00507
G1 X229.31 Y101.19 E17.03568
G1 X229.101 Y102.087 E17.06632
G1 X228.815 Y102.962 E17.09693
G1 X228.454 Y103.809 E17.12756
G1 X228.124 Y104.441 E17.15127
G1 X227.62 Y105.334 E17.18538
G1 X226.337 Y107.638 E17.27309
G1 X225.183 Y109.857 E17.35628
G1 X224.082 Y112.126 E17.44016
G1 X223.036 Y114.445 E17.52477
G1 X222.059 Y116.786 E17.60914
G1 X221.156 Y119.143 E17.69309
G1 X220.321 Y121.515 E17.77673
G1 X219.54 Y123.954 E17.86191
G1 X218.852 Y126.332 E17.94425
G1 X218.202 Y128.839 E18.03039
G1 X217.639 Y131.29 E18.11403
G1 X217.156 Y133.719 E18.1964
G1 X216.723 Y136.262 E18.2822
G1 X216.371 Y138.758 E18.36604
G1 X216.09 Y141.25 E18.44945
G1 X215.879 Y143.768 E18.53349
G1 X215.738 Y146.319 E18.61847
G1 X215.669 Y148.829 E18.70198
G1 X215.672 Y151.348 E18.78576
G1 X215.746 Y153.918 E18.87128
G1 X215.889 Y156.392 E18.9537
G1 X216.109 Y158.938 E19.03869
G1 X216.397 Y161.457 E19.12302
G1 X216.753 Y163.932 E19.20619
G1 X217.186 Y166.445 E19.291
G1 X217.683 Y168.906 E19.37451
G1 X218.25 Y171.364 E19.45841
G1 X218.893 Y173.824 E19.54298
G1 X219.607 Y176.271 E19.62776
G1 X220.374 Y178.648 E19.71083
G1 X221.216 Y181.027 E19.79477
G1 X222.14 Y183.416 E19.87996
G1 X223.109 Y185.725 E19.96325
G1 X224.166 Y188.06 E20.0485
G1 X225.257 Y190.299 E20.13134
G1 X226.417 Y192.515 E20.21453
G1 X227.467 Y194.364 E20.28525
G1 X228.144 Y195.579 E20.33151
G1 X228.556 Y196.401 E20.36209
G1 X228.896 Y197.257 E20.39273
G1 X229.16 Y198.139 E20.42335
G1 X229.347 Y199.041 E20.45399
G1 X229.468 Y200.155 E20.49126
G1 X229.486 Y200.482 E20.50215
G1 X229.501 Y201.209 E20.52634
G1 X229.492 Y201.873 E20.54842
G1 X229.44 Y202.792 E20.57904
G1 X229.308 Y203.703 E20.60965
G1 X229.097 Y204.599 E20.64027
G1 X228.809 Y205.474 E20.67091
G1 X228.447 Y206.32 E20.70152
G1 X228.013 Y207.132 E20.73214
G1 X227.509 Y207.903 E20.76277
G1 X226.941 Y208.627 E20.79338
G1 X226.312 Y209.3 E20.82402
G1 X225.627 Y209.915 E20.85464
G1 X224.892 Y210.468 E20.88523
G1 X224.111 Y210.956 E20.91586
G1 X223.29 Y211.374 E20.9465
G1 X222.437 Y211.719 E20.97711
G1 X221.557 Y211.989 E21.00772
G1 X220.656 Y212.181 E21.03836
G1 X219.743 Y212.295 E21.06896
G1 X219.105 Y212.327 E21.09021
G1 X217.842 Y212.35 E21.13223
G1 X113.663 Y212.35 E24.59723
G1 X113.511 Y212.349 E24.60229
G1 X112.813 Y212.339 E24.62551
G1 X111.894 Y212.286 E24.65612
G1 X110.983 Y212.153 E24.68675
G1 X110.087 Y211.942 E24.71736
G1 X109.213 Y211.654 E24.74797
G1 X108.366 Y211.291 E24.77862
G1 X107.555 Y210.856 E24.80923
G1 X106.785 Y210.352 E24.83984
G1 X106.061 Y209.783 E24.87046
G1 X105.389 Y209.153 E24.9011
G1 X104.774 Y208.468 E24.93172
G1 X104.221 Y207.732 E24.96234
G1 X103.734 Y206.951 E24.99295
G1 X103.317 Y206.13 E25.02358
G1 X102.972 Y205.276 E25.05421
G1 X102.703 Y204.396 E25.08482
G1 X102.511 Y203.495 E25.11546
G1 X102.398 Y202.582 E25.14606
G1 X102.37 Y202.05 E25.16377
G1 X102.361 Y201.742 E25.17402
G1 X102.357 Y201.275 E25.18956
G1 X102.367 Y200.601 E25.21198
G1 X102.421 Y199.682 E25.24259
G1 X102.554 Y198.771 E25.27322
G1 X102.766 Y197.875 E25.30384
G1 X103.054 Y197 E25.33448
G1 X103.418 Y196.155 E25.36508
G1 X103.769 Y195.488 E25.39015
G1 X104.224 Y194.694 E25.42059
G1 X105.465 Y192.471 E25.50526
G1 X106.647 Y190.205 E25.59027
G1 X107.73 Y187.976 E25.67269
G1 X108.791 Y185.626 E25.75845
G1 X109.77 Y183.285 E25.84285
G1 X110.677 Y180.935 E25.92663
G1 X111.513 Y178.558 E26.01043
G1 X112.284 Y176.159 E26.09425
G1 X112.992 Y173.725 E26.17856
G1 X113.629 Y171.273 E26.26282
G1 X114.196 Y168.812 E26.34681
G1 X114.7 Y166.304 E26.4319
G1 X115.116 Y163.864 E26.51422
G1 X115.477 Y161.331 E26.59932
G1 X115.759 Y158.849 E26.68241
G1 X115.977 Y156.293 E26.76773
G1 X116.117 Y153.803 E26.85068
G1 X116.189 Y151.247 E26.93572
G1 X116.189 Y148.737 E27.01921
G1 X116.117 Y146.191 E27.10392
G1 X115.975 Y143.684 E27.18744
G1 X115.76 Y141.156 E27.27182
G1 X115.475 Y138.653 E27.35561
G1 X115.114 Y136.112 E27.44097
G1 X114.695 Y133.675 E27.52322
G1 X114.198 Y131.198 E27.60724
G1 X113.625 Y128.71 E27.69216
G1 X112.977 Y126.217 E27.77783
G1 X112.29 Y123.853 E27.85971
G1 X111.507 Y121.419 E27.94476
G1 X110.662 Y119.026 E28.02916
G1 X109.777 Y116.731 E28.11097
G1 X108.782 Y114.347 E28.1969
G1 X107.737 Y112.036 E28.28125
G1 X106.635 Y109.77 E28.36506
G1 X105.459 Y107.515 E28.44965
G1 X104.205 Y105.27 E28.53518
G1 X103.799 Y104.57 E28.56209
G1 X103.372 Y103.755 E28.59269
G1 X103.017 Y102.905 E28.62333
G1 X102.737 Y102.028 E28.65395
G1 X102.535 Y101.13 E28.68456
G1 X102.411 Y100.218 E28.71518
G1 X102.372 Y99.587 E28.7362
G1 X102.361 Y99.241 E28.74772
G1 X102.357 Y98.772 E28.76332
G1 X102.365 Y98.128 E28.78474
G1 X102.416 Y97.209 E28.81535
G1 X102.547 Y96.298 E28.84596
G1 X102.757 Y95.401 E28.8766
G1 X103.043 Y94.526 E28.90722
G1 X103.405 Y93.68 E28.93783
G1 X103.838 Y92.867 E28.96846
G1 X104.341 Y92.096 E28.99908
G1 X104.908 Y91.371 E29.02969
G1 X105.536 Y90.698 E29.06031
G1 X106.22 Y90.082 E29.09093
G1 X106.955 Y89.528 E29.12154
G1 X107.736 Y89.039 E29.15219
G1 X108.556 Y88.62 E29.18281
G1 X109.409 Y88.274 E29.21343
G1 X110.289 Y88.003 E29.24406
G1 X111.189 Y87.81 E29.27467
G1 X112.102 Y87.695 E29.30528
G1 X112.645 Y87.665 E29.32336
G1 X113.263 Y87.651 E29.34392
G1 X218.194 Y87.65 E32.83394
G1 X218.346 Y87.651 E32.839
G1 X219.044 Y87.661 E32.86222
G0 F6000 X224.455 Y112.272
G1 F1200 X223.393 Y114.627 E32.94814
G1 X222.426 Y116.946 E33.03171
G1 X221.535 Y119.271 E33.11452
G1 X220.704 Y121.633 E33.1978
G1 X219.929 Y124.05 E33.28222
G1 X219.229 Y126.471 E33.36605
G1 X218.593 Y128.923 E33.4503
G1 X218.036 Y131.353 E33.53322
G1 X217.543 Y133.827 E33.61712
G1 X217.12 Y136.314 E33.70103
G1 X216.771 Y138.787 E33.78409
G1 X216.488 Y141.295 E33.86804
G1 X216.277 Y143.822 E33.95238
G1 X216.138 Y146.316 E34.03546
G1 X216.069 Y148.84 E34.11944
G1 X216.072 Y151.371 E34.20362
G1 X216.144 Y153.849 E34.28607
G1 X216.291 Y156.403 E34.37116
G1 X216.506 Y158.894 E34.45432
G1 X216.792 Y161.391 E34.53791
G1 X217.149 Y163.879 E34.62151
G1 X217.578 Y166.37 E34.70558
G1 X218.071 Y168.809 E34.78834
G1 X218.641 Y171.278 E34.87262
G1 X219.278 Y173.716 E34.95643
G1 X219.986 Y176.142 E35.04049
G1 X220.756 Y178.528 E35.12388
G1 X221.595 Y180.898 E35.2075
G1 X222.506 Y183.253 E35.29148
G1 X223.484 Y185.585 E35.37559
G1 X224.512 Y187.856 E35.4585
G1 X225.621 Y190.131 E35.54268
G1 X226.767 Y192.321 E35.62489
G1 X227.816 Y194.169 E35.69557
G1 X228.493 Y195.384 E35.74183
G1 X228.914 Y196.222 E35.77302
G1 X229.262 Y197.093 E35.80422
G1 X229.535 Y197.99 E35.8354
G1 X229.731 Y198.907 E35.86659
G1 X229.867 Y200.133 E35.90762
G1 X229.885 Y200.46 E35.91851
G1 X229.901 Y201.214 E35.94359
G1 X229.892 Y201.878 E35.96568
G1 X229.839 Y202.814 E35.99686
G1 X229.707 Y203.743 E36.02807
G1 X229.496 Y204.657 E36.05927
G1 X229.208 Y205.549 E36.09045
G1 X228.845 Y206.414 E36.12165
G1 X228.41 Y207.245 E36.15284
G1 X227.906 Y208.036 E36.18404
G1 X227.336 Y208.78 E36.21521
G1 X226.704 Y209.474 E36.24643
G1 X226.016 Y210.111 E36.27762
G1 X225.276 Y210.687 E36.30881
G1 X224.49 Y211.199 E36.34001
G1 X223.663 Y211.641 E36.37119
G1 X222.801 Y212.011 E36.40239
G1 X221.911 Y212.307 E36.43359
G1 X220.999 Y212.525 E36.46478
G1 X220.072 Y212.666 E36.49596
G1 X219.113 Y212.727 E36.52792
G1 X217.842 Y212.75 E36.57021
G1 X113.663 Y212.75 E40.03521
G1 X113.505 Y212.749 E40.04047
G1 X112.807 Y212.739 E40.06369
G1 X111.871 Y212.685 E40.09487
G1 X110.943 Y212.553 E40.12605
G1 X110.029 Y212.341 E40.15725
G1 X109.137 Y212.052 E40.18844
G1 X108.272 Y211.689 E40.21964
G1 X107.442 Y211.253 E40.25082
G1 X106.651 Y210.748 E40.28204
G1 X105.907 Y210.177 E40.31323
G1 X105.214 Y209.545 E40.34442
G1 X104.577 Y208.857 E40.37561
G1 X104.002 Y208.116 E40.4068
G1 X103.491 Y207.33 E40.43799
G1 X103.049 Y206.502 E40.4692
G1 X102.68 Y205.64 E40.50039
G1 X102.385 Y204.75 E40.53158
G1 X102.167 Y203.838 E40.56276
G1 X102.027 Y202.91 E40.59398
G1 X101.97 Y202.061 E40.62228
G1 X101.961 Y201.753 E40.63253
G1 X101.957 Y201.269 E40.64863
G1 X101.967 Y200.595 E40.67105
G1 X102.021 Y199.658 E40.70226
G1 X102.155 Y198.73 E40.73345
G1 X102.367 Y197.817 E40.76462
G1 X102.656 Y196.924 E40.79584
G1 X103.02 Y196.06 E40.82702
G1 X103.422 Y195.289 E40.85594
G1 X103.828 Y194.581 E40.88309
G1 X105.133 Y192.243 E40.97214
G1 X106.276 Y190.052 E41.05434
G1 X107.384 Y187.773 E41.13862
G1 X108.415 Y185.486 E41.22206
G1 X109.386 Y183.166 E41.30571
G1 X110.317 Y180.755 E41.39167
G1 X111.127 Y178.452 E41.47287
G1 X111.902 Y176.04 E41.55713
G1 X112.609 Y173.609 E41.64134
G1 X113.236 Y171.197 E41.72422
G1 X113.808 Y168.715 E41.80894
G1 X114.302 Y166.257 E41.89233
G1 X114.724 Y163.781 E41.97587
G1 X115.078 Y161.296 E42.05935
G1 X115.368 Y158.737 E42.14501
G1 X115.574 Y156.307 E42.22612
G1 X115.717 Y153.77 E42.31064
G1 X115.789 Y151.236 E42.39495
